X: 11123
T: Duke Of Leinster, The
R: reel
M: 4/4
K: Gmajor
~G2GB dGBG|d2eB dBAB|~G2GB dGBG|dBAB GEDE|
~G2GB dGBG|d2eB dBAB|G2Bd e2ge|dBAB GEde||
~g2ga bg~g2|agbg aged|~g2ga bgeB|dBAB GEde|
~g2ga bg~g2|ag~g2 bgeB|dgge d2ge|dBAB GEDE||

